; G-Code generated by Simplify3D(R) Version 4.0.1
; May 14, 2018 at 9:59:32 PM
; Settings Summary
;   processName,Process1
;   applyToModels,WMStand
;   profileName,Creality CR-10 (MK3) (modified)
;   profileVersion,2018-04-18 14:02:23
;   baseProfile,Creality CR-10 (modified)
;   printMaterial,PLA
;   printQuality,Medium
;   printExtruders,
;   extruderName,Primary Extruder
;   extruderToolheadNumber,0
;   extruderDiameter,0.45
;   extruderAutoWidth,0
;   extruderWidth,0.45
;   extrusionMultiplier,0.95
;   extruderUseRetract,1
;   extruderRetractionDistance,3
;   extruderExtraRestartDistance,0
;   extruderRetractionZLift,0
;   extruderRetractionSpeed,1800
;   extruderUseCoasting,0
;   extruderCoastingDistance,0.2
;   extruderUseWipe,0
;   extruderWipeDistance,5
;   primaryExtruder,0
;   layerHeight,0.3
;   topSolidLayers,3
;   bottomSolidLayers,2
;   perimeterOutlines,3
;   printPerimetersInsideOut,1
;   startPointOption,2
;   startPointOriginX,0
;   startPointOriginY,0
;   sequentialIslands,0
;   spiralVaseMode,0
;   firstLayerHeightPercentage,120
;   firstLayerWidthPercentage,100
;   firstLayerUnderspeed,0.5
;   useRaft,0
;   raftExtruder,0
;   raftTopLayers,3
;   raftBaseLayers,2
;   raftOffset,3
;   raftSeparationDistance,0.14
;   raftTopInfill,100
;   aboveRaftSpeedMultiplier,0.3
;   useSkirt,1
;   skirtExtruder,0
;   skirtLayers,1
;   skirtOutlines,2
;   skirtOffset,1
;   usePrimePillar,0
;   primePillarExtruder,999
;   primePillarWidth,12
;   primePillarLocation,7
;   primePillarSpeedMultiplier,1
;   useOozeShield,0
;   oozeShieldExtruder,999
;   oozeShieldOffset,2
;   oozeShieldOutlines,1
;   oozeShieldSidewallShape,1
;   oozeShieldSidewallAngle,30
;   oozeShieldSpeedMultiplier,1
;   infillExtruder,0
;   internalInfillPattern,Full Honeycomb
;   externalInfillPattern,Rectilinear
;   infillPercentage,10
;   outlineOverlapPercentage,15
;   infillExtrusionWidthPercentage,100
;   minInfillLength,5
;   infillLayerInterval,1
;   internalInfillAngles,0,120,-120
;   overlapInternalInfillAngles,0
;   externalInfillAngles,45,-45
;   generateSupport,0
;   supportExtruder,0
;   supportInfillPercentage,10
;   supportExtraInflation,0
;   supportBaseLayers,0
;   denseSupportExtruder,0
;   denseSupportLayers,0
;   denseSupportInfillPercentage,70
;   supportLayerInterval,1
;   supportHorizontalPartOffset,0.3
;   supportUpperSeparationLayers,1
;   supportLowerSeparationLayers,1
;   supportType,0
;   supportGridSpacing,4
;   maxOverhangAngle,45
;   supportAngles,0
;   temperatureName,Primary Extruder,Heated Bed
;   temperatureNumber,0,0
;   temperatureSetpointCount,1,1
;   temperatureSetpointLayers,1,1
;   temperatureSetpointTemperatures,210,60
;   temperatureStabilizeAtStartup,1,1
;   temperatureHeatedBed,0,1
;   temperatureRelayBetweenLayers,0,0
;   temperatureRelayBetweenLoops,0,0
;   fanLayers,1,2
;   fanSpeeds,0,60
;   blipFanToFullPower,0
;   adjustSpeedForCooling,1
;   minSpeedLayerTime,15
;   minCoolingSpeedSlowdown,20
;   increaseFanForCooling,0
;   minFanLayerTime,45
;   maxCoolingFanSpeed,100
;   increaseFanForBridging,0
;   bridgingFanSpeed,100
;   use5D,1
;   relativeEdistances,0
;   allowEaxisZeroing,1
;   independentExtruderAxes,0
;   includeM10123,0
;   stickySupport,1
;   applyToolheadOffsets,0
;   gcodeXoffset,0
;   gcodeYoffset,0
;   gcodeZoffset,0
;   overrideMachineDefinition,1
;   machineTypeOverride,0
;   strokeXoverride,300
;   strokeYoverride,300
;   strokeZoverride,400
;   originOffsetXoverride,0
;   originOffsetYoverride,0
;   originOffsetZoverride,0
;   homeXdirOverride,-1
;   homeYdirOverride,-1
;   homeZdirOverride,-1
;   flipXoverride,1
;   flipYoverride,-1
;   flipZoverride,1
;   toolheadOffsets,0,0|0,0|0,0|0,0|0,0|0,0
;   overrideFirmwareConfiguration,1
;   firmwareTypeOverride,RepRap (Marlin/Repetier/Sprinter)
;   GPXconfigOverride,r2
;   baudRateOverride,115200
;   overridePrinterModels,1
;   printerModelsOverride
;   startingGcode,G28 X Y Z
;   layerChangeGcode,
;   retractionGcode,
;   toolChangeGcode,
;   endingGcode,G28 X0 ; home x axis,M106 S0 ; turn off cooling fan,M104 S0 ; turn off extruder,M140 S0 ; turn off bed,M84 ; disable motors
;   exportFileFormat,gcode
;   celebration,0
;   celebrationSong,Random Song
;   postProcessing,
;   defaultSpeed,6000
;   outlineUnderspeed,0.8
;   solidInfillUnderspeed,0.75
;   supportUnderspeed,0.8
;   rapidXYspeed,6000
;   rapidZspeed,1002
;   minBridgingArea,50
;   bridgingExtraInflation,0
;   bridgingExtrusionMultiplier,1
;   bridgingSpeedMultiplier,1
;   useFixedBridgingAngle,0
;   fixedBridgingAngle,0
;   applyBridgingToPerimeters,0
;   filamentDiameters,1.75|1.75|1.75|1.75|1.75|1.75
;   filamentPricesPerKg,46|46|46|46|46|46
;   filamentDensities,1.25|1.25|1.25|1.25|1.25|1.25
;   useMinPrintHeight,0
;   minPrintHeight,8
;   useMaxPrintHeight,0
;   maxPrintHeight,8
;   useDiaphragm,0
;   diaphragmLayerInterval,20
;   robustSlicing,1
;   mergeAllIntoSolid,0
;   onlyRetractWhenCrossingOutline,1
;   retractBetweenLayers,1
;   useRetractionMinTravel,0
;   retractionMinTravel,3
;   retractWhileWiping,0
;   onlyWipeOutlines,1
;   avoidCrossingOutline,1
;   maxMovementDetourFactor,3
;   toolChangeRetractionDistance,12
;   toolChangeExtraRestartDistance,-0.5
;   toolChangeRetractionSpeed,600
;   externalThinWallType,0
;   internalThinWallType,2
;   thinWallAllowedOverlapPercentage,10
;   singleExtrusionMinLength,1
;   singleExtrusionMinPrintingWidthPercentage,50
;   singleExtrusionMaxPrintingWidthPercentage,200
;   singleExtrusionEndpointExtension,0.2
;   horizontalSizeCompensation,0
G90
M82
M106 S0
M140 S60
M190 S60
M104 S210 T0
M109 S210 T0
G28 X Y Z
G92 E0
G1 E-3.0000 F1800
G1 Z0.360 F1002
; process Process1
; layer 1, Z = 0.360
T0
; tool H0.360 W0.450
; skirt
G1 X101.742 Y101.678 F6000
G1 E0.0000 F540
G92 E0
G1 X102.482 Y101.057 E0.0618 F3000
G1 X102.706 Y100.975 E0.0770
G1 X197.294 Y100.975 E6.1292
G1 X197.518 Y101.057 E6.1444
G1 X198.258 Y101.678 E6.2062
G1 X198.377 Y101.884 E6.2215
G1 X215.266 Y197.666 E12.4445
G1 X215.188 Y197.955 E12.4637
G1 X214.396 Y198.898 E12.5425
G1 X214.125 Y199.025 E12.5617
G1 X85.875 Y199.025 E20.7677
G1 X85.603 Y198.898 E20.7868
G1 X84.812 Y197.955 E20.8656
G1 X84.734 Y197.666 E20.8848
G1 X101.623 Y101.884 E27.1079
G1 X101.742 Y101.678 E27.1231
G1 X102.092 Y101.971 F6000
G92 E0
G1 X102.711 Y101.452 E0.0517 F3000
G1 X102.785 Y101.425 E0.0567
G1 X197.215 Y101.425 E6.0987
G1 X197.289 Y101.452 E6.1038
G1 X197.908 Y101.971 E6.1555
G1 X197.947 Y102.040 E6.1605
G1 X214.805 Y197.645 E12.3722
G1 X214.779 Y197.742 E12.3785
G1 X214.116 Y198.533 E12.4446
G1 X214.025 Y198.575 E12.4510
G1 X85.975 Y198.575 E20.6442
G1 X85.884 Y198.533 E20.6506
G1 X85.221 Y197.742 E20.7166
G1 X85.195 Y197.645 E20.7230
G1 X102.053 Y102.040 E26.9346
G1 X102.092 Y101.971 E26.9397
G92 E0
G1 E-3.0000 F1800
; inner perimeter
G1 X103.374 Y102.871 F6000
G1 X103.338 Y103.073 F6000
G1 X104.133 Y103.775 F6000
G1 E0.0000 F1800
G92 E0
G1 X195.867 Y103.775 E5.8696 F2700
G1 X212.169 Y196.225 E11.8761
G1 X87.831 Y196.225 E19.8317
G1 X104.133 Y103.775 E25.8383
G1 X103.755 Y103.325 F6000
G92 E0
G1 X196.245 Y103.325 E5.9179 F2700
G1 X212.705 Y196.675 E11.9829
G1 X87.295 Y196.675 E20.0072
G1 X103.755 Y103.325 E26.0722
; outer perimeter
G1 X103.378 Y102.875 F6000
G92 E0
G1 X196.622 Y102.875 E5.9662 F2400
G1 X213.241 Y197.125 E12.0897
G1 X86.759 Y197.125 E20.1826
G1 X103.378 Y102.875 E26.3061
; inner perimeter
G1 X115.302 Y112.213 F6000
G92 E0
G1 X115.302 Y186.404 E4.7471 F2700
G1 X184.698 Y186.404 E9.1873
G1 X184.698 Y112.213 E13.9344
G1 X115.302 Y112.213 E18.3746
G1 X115.752 Y112.663 F6000
G92 E0
G1 X115.752 Y185.954 E4.6895 F2700
G1 X184.248 Y185.954 E9.0721
G1 X184.248 Y112.663 E13.7616
G1 X115.752 Y112.663 E18.1442
; outer perimeter
G1 X116.202 Y113.113 F6000
G92 E0
G1 X116.202 Y185.504 E4.6319 F2400
G1 X183.798 Y185.504 E8.9569
G1 X183.798 Y113.113 E13.5888
G1 X116.202 Y113.113 E17.9139
; solid layer
G1 X185.080 Y111.895 F6000
G92 E0
G1 X199.443 Y126.257 E1.2997 F2250
G1 X199.579 Y127.030 E1.3499
G1 X185.080 Y112.531 E2.6618
G1 X185.080 Y113.167 E2.7026
G1 X199.715 Y127.803 E4.0269
G1 X199.852 Y128.575 E4.0771
G1 X185.080 Y113.804 E5.4137
G1 X185.080 Y114.440 E5.4544
G1 X199.988 Y129.348 E6.8034
G1 X200.124 Y130.121 E6.8536
G1 X185.080 Y115.077 E8.2149
G1 X185.080 Y115.713 E8.2556
G1 X200.260 Y130.893 E9.6292
G1 X200.397 Y131.666 E9.6794
G1 X185.080 Y116.349 E11.0654
G1 X185.080 Y116.986 E11.1061
G1 X200.533 Y132.439 E12.5044
G1 X200.669 Y133.211 E12.5546
G1 X185.080 Y117.622 E13.9652
G1 X185.080 Y118.259 E14.0059
G1 X200.805 Y133.984 E15.4288
G1 X200.942 Y134.756 E15.4790
G1 X185.080 Y118.895 E16.9143
G1 X185.080 Y119.531 E16.9550
G1 X201.078 Y135.529 E18.4026
G1 X201.214 Y136.302 E18.4528
G1 X185.080 Y120.168 E19.9127
G1 X185.080 Y120.804 E19.9534
G1 X201.350 Y137.074 E21.4257
G1 X201.487 Y137.847 E21.4759
G1 X185.080 Y121.441 E22.9604
G1 X185.080 Y122.077 E23.0012
G1 X201.623 Y138.620 E24.4981
G1 X201.759 Y139.392 E24.5483
G1 X185.080 Y122.713 E26.0575
G1 X185.080 Y123.350 E26.0982
G1 X201.895 Y140.165 E27.6198
G1 X202.032 Y140.937 E27.6700
G1 X185.080 Y123.986 E29.2038
G1 X185.080 Y124.623 E29.2446
G1 X202.168 Y141.710 E30.7908
G1 X202.304 Y142.483 E30.8410
G1 X185.080 Y125.259 E32.3995
G1 X185.080 Y125.895 E32.4402
G1 X202.440 Y143.255 E34.0111
G1 X202.576 Y144.028 E34.0613
G1 X185.080 Y126.532 E35.6445
G1 X185.080 Y127.168 E35.6852
G1 X202.713 Y144.801 E37.2807
G1 X202.849 Y145.573 E37.3309
G1 X185.080 Y127.804 E38.9388
G1 X185.080 Y128.441 E38.9795
G1 X202.985 Y146.346 E40.5997
G1 X203.121 Y147.119 E40.6499
G1 X185.080 Y129.077 E42.2824
G1 X185.080 Y129.714 E42.3231
G1 X203.258 Y147.891 E43.9679
G1 X203.394 Y148.664 E44.0181
G1 X185.080 Y130.350 E45.6753
G1 X185.080 Y130.986 E45.7160
G1 X203.530 Y149.436 E47.3855
G1 X203.666 Y150.209 E47.4357
G1 X185.080 Y131.623 E49.1175
G1 X185.080 Y132.259 E49.1582
G1 X203.803 Y150.982 E50.8523
G1 X203.939 Y151.754 E50.9025
G1 X185.080 Y132.896 E52.6090
G1 X185.080 Y133.532 E52.6497
G1 X204.075 Y152.527 E54.3685
G1 X204.211 Y153.300 E54.4187
G1 X185.080 Y134.168 E56.1498
G1 X185.080 Y134.805 E56.1906
G1 X204.348 Y154.072 E57.9340
G1 X204.484 Y154.845 E57.9842
G1 X185.080 Y135.441 E59.7400
G1 X185.080 Y136.078 E59.7807
G1 X204.620 Y155.617 E61.5488
G1 X204.756 Y156.390 E61.5990
G1 X185.080 Y136.714 E63.3795
G1 X185.080 Y137.350 E63.4202
G1 X204.892 Y157.163 E65.2129
G1 X205.029 Y157.935 E65.2631
G1 X185.080 Y137.987 E67.0682
G1 X185.080 Y138.623 E67.1089
G1 X205.165 Y158.708 E68.9264
G1 X205.301 Y159.481 E68.9766
G1 X185.080 Y139.260 E70.8063
G1 X185.080 Y139.896 E70.8470
G1 X205.437 Y160.253 E72.6891
G1 X205.574 Y161.026 E72.7393
G1 X185.080 Y140.532 E74.5937
G1 X185.080 Y141.169 E74.6344
G1 X205.710 Y161.799 E76.5011
G1 X205.846 Y162.571 E76.5513
G1 X185.080 Y141.805 E78.4304
G1 X185.080 Y142.442 E78.4711
G1 X205.982 Y163.344 E80.3625
G1 X206.119 Y164.116 E80.4127
G1 X185.080 Y143.078 E82.3164
G1 X185.080 Y143.714 E82.3571
G1 X206.255 Y164.889 E84.2732
G1 X206.391 Y165.662 E84.3234
G1 X185.080 Y144.351 E86.2517
G1 X185.080 Y144.987 E86.2924
G1 X206.527 Y166.434 E88.2331
G1 X206.664 Y167.207 E88.2833
G1 X185.080 Y145.624 E90.2364
G1 X185.080 Y146.260 E90.2771
G1 X206.800 Y167.980 E92.2424
G1 X206.936 Y168.752 E92.2926
G1 X185.080 Y146.896 E94.2703
G1 X185.080 Y147.533 E94.3110
G1 X207.072 Y169.525 E96.3010
G1 X207.208 Y170.297 E96.3512
G1 X185.080 Y148.169 E98.3536
G1 X185.080 Y148.806 E98.3943
G1 X207.345 Y171.070 E100.4089
G1 X207.481 Y171.843 E100.4591
G1 X185.080 Y149.442 E102.4861
G1 X185.080 Y150.078 E102.5268
G1 X207.617 Y172.615 E104.5662
G1 X207.753 Y173.388 E104.6164
G1 X185.080 Y150.715 E106.6680
G1 X185.080 Y151.351 E106.7087
G1 X207.890 Y174.161 E108.7727
G1 X208.026 Y174.933 E108.8229
G1 X185.080 Y151.988 E110.8992
G1 X185.080 Y152.624 E110.9399
G1 X208.162 Y175.706 E113.0285
G1 X208.298 Y176.479 E113.0787
G1 X185.080 Y153.260 E115.1797
G1 X185.080 Y153.897 E115.2204
G1 X208.435 Y177.251 E117.3337
G1 X208.571 Y178.024 E117.3839
G1 X185.080 Y154.533 E119.5095
G1 X185.080 Y155.170 E119.5502
G1 X208.707 Y178.796 E121.6881
G1 X208.843 Y179.569 E121.7383
G1 X185.080 Y155.806 E123.8886
G1 X185.080 Y156.442 E123.9293
G1 X208.980 Y180.342 E126.0919
G1 X209.116 Y181.114 E126.1421
G1 X185.080 Y157.079 E128.3170
G1 X185.080 Y157.715 E128.3577
G1 X209.252 Y181.887 E130.5450
G1 X209.388 Y182.660 E130.5952
G1 X185.080 Y158.352 E132.7948
G1 X185.080 Y158.988 E132.8355
G1 X209.524 Y183.432 E135.0474
G1 X209.661 Y184.205 E135.0976
G1 X185.080 Y159.624 E137.3218
G1 X185.080 Y160.261 E137.3625
G1 X209.797 Y184.977 E139.5991
G1 X209.933 Y185.750 E139.6493
G1 X185.080 Y160.897 E141.8982
G1 X185.080 Y161.533 E141.9389
G1 X210.069 Y186.523 E144.2001
G1 X210.206 Y187.295 E144.2503
G1 X185.080 Y162.170 E146.5238
G1 X185.080 Y162.806 E146.5646
G1 X210.342 Y188.068 E148.8504
G1 X210.478 Y188.841 E148.9006
G1 X185.080 Y163.443 E151.1988
G1 X185.080 Y164.079 E151.2395
G1 X210.614 Y189.613 E153.5501
G1 X210.751 Y190.386 E153.6003
G1 X185.080 Y164.715 E155.9231
G1 X185.080 Y165.352 E155.9638
G1 X210.887 Y191.159 E158.2990
G1 X211.023 Y191.931 E158.3492
G1 X185.080 Y165.988 E160.6967
G1 X185.080 Y166.625 E160.7374
G1 X211.159 Y192.704 E163.0973
G1 X211.296 Y193.476 E163.1475
G1 X185.080 Y167.261 E165.5196
G1 X185.080 Y167.897 E165.5603
G1 X211.432 Y194.249 E167.9448
G1 X211.568 Y195.022 E167.9950
G1 X185.080 Y168.534 E170.3918
G1 X185.080 Y169.170 E170.4326
G1 X211.704 Y195.794 E172.8417
G1 X211.713 Y195.842 E172.8448
G1 X211.116 Y195.842 E172.8830
G1 X185.080 Y169.807 E175.2389
G1 X185.080 Y170.443 E175.2796
G1 X210.479 Y195.842 E177.5779
G1 X209.843 Y195.842 E177.6187
G1 X185.080 Y171.079 E179.8594
G1 X185.080 Y171.716 E179.9001
G1 X209.207 Y195.842 E182.0832
G1 X208.570 Y195.842 E182.1240
G1 X185.080 Y172.352 E184.2495
G1 X185.080 Y172.989 E184.2902
G1 X207.934 Y195.842 E186.3582
G1 X207.297 Y195.842 E186.3989
G1 X185.080 Y173.625 E188.4093
G1 X185.080 Y174.261 E188.4500
G1 X206.661 Y195.842 E190.4028
G1 X206.025 Y195.842 E190.4435
G1 X185.080 Y174.898 E192.3388
G1 X185.080 Y175.534 E192.3795
G1 X205.388 Y195.842 E194.2171
G1 X204.752 Y195.842 E194.2578
G1 X185.080 Y176.171 E196.0379
G1 X185.080 Y176.807 E196.0786
G1 X204.115 Y195.842 E197.8010
G1 X203.479 Y195.842 E197.8418
G1 X185.080 Y177.443 E199.5066
G1 X185.080 Y178.080 E199.5473
G1 X202.843 Y195.842 E201.1546
G1 X202.206 Y195.842 E201.1954
G1 X185.080 Y178.716 E202.7450
G1 X185.080 Y179.353 E202.7858
G1 X201.570 Y195.842 E204.2779
G1 X200.934 Y195.842 E204.3186
G1 X185.080 Y179.989 E205.7531
G1 X185.080 Y180.625 E205.7938
G1 X200.297 Y195.842 E207.1708
G1 X199.661 Y195.842 E207.2115
G1 X185.080 Y181.262 E208.5309
G1 X185.080 Y181.898 E208.5716
G1 X199.024 Y195.842 E209.8333
G1 X198.388 Y195.842 E209.8741
G1 X185.080 Y182.535 E211.0782
G1 X185.080 Y183.171 E211.1190
G1 X197.752 Y195.842 E212.2656
G1 X197.115 Y195.842 E212.3063
G1 X185.080 Y183.807 E213.3953
G1 X185.080 Y184.444 E213.4360
G1 X196.479 Y195.842 E214.4674
G1 X195.842 Y195.842 E214.5082
G1 X185.080 Y185.080 E215.4820
G1 X185.080 Y185.717 E215.5227
G1 X195.206 Y195.842 E216.4390
G1 X194.570 Y195.842 E216.4797
G1 X185.080 Y186.353 E217.3384
G1 X185.080 Y186.787 E217.3661
G1 X184.878 Y186.787 E217.3791
G1 X193.933 Y195.842 E218.1985
G1 X193.297 Y195.842 E218.2392
G1 X184.241 Y186.787 E219.0586
G1 X183.605 Y186.787 E219.0993
G1 X192.660 Y195.842 E219.9187
G1 X192.024 Y195.842 E219.9595
G1 X182.968 Y186.787 E220.7789
G1 X182.332 Y186.787 E220.8196
G1 X191.388 Y195.842 E221.6390
G1 X190.751 Y195.842 E221.6797
G1 X181.696 Y186.787 E222.4991
G1 X181.059 Y186.787 E222.5398
G1 X190.115 Y195.842 E223.3592
G1 X189.478 Y195.842 E223.4000
G1 X180.423 Y186.787 E224.2194
G1 X179.787 Y186.787 E224.2601
G1 X188.842 Y195.842 E225.0795
G1 X188.206 Y195.842 E225.1202
G1 X179.150 Y186.787 E225.9396
G1 X178.514 Y186.787 E225.9803
G1 X187.569 Y195.842 E226.7997
G1 X186.933 Y195.842 E226.8405
G1 X177.877 Y186.787 E227.6599
G1 X177.241 Y186.787 E227.7006
G1 X186.296 Y195.842 E228.5200
G1 X185.660 Y195.842 E228.5607
